X:183
T:Reel Sainte Louise
S:Laurence Beaudry
Z:robin.beech@mcgill.ca
M:4/4
L:1/8
K:D
f4 edeg | fafd Adfd | eece Acec | dcde fdAd | 
f4 edeg | fafd Adfd | eece Acec |1 dfec d2Ad :|2 dfec d2ef |:
gbge Aceg | fafd Adfd | eece Acec | dcde f2ef |
gbge Aceg | fafd Adfd | eece Acec | dfec d2ef :|

